!!!!SEGMENT: pl-sa--177-a-v-7--006_luna-georgius--missa-ex-d-benedictus.krn
!!!cenid: 17xx:470
!!!COM: Luna, Georgius
!!!COM-rismID: pe41010079
!!!CDT:
!!!CNT:
!!!OPR: Missa ex D
!!!OTL: Benedictus
!!!OMV: 006
!!!PDT:
!!!AGN: Sacred; Mass
!!!SMS-siglum: PL-SA
!!!SMS-shelfmark: 177/A V 7
!!!SMS-shelfwork: 001-006 M
!!!SMS-variant:
!!!SMS-altvar:
!!!NIFC-rismSourceID: 1001035883
!!!NIFC-rismChildID: 1001035883
!!!NIFC-islandoraID: none
!!!URL-pdf-islandora:
!!!URL-scan: https://bc.bdsandomierz.pl/dlibra/publication/1512/edition/1480/content @EN{Scan in the Sandomierz Diocese Digital Library} @PL{Skany w portalu Cyfrowa Biblioteka Diecezjalna w Sandomierzu}
!!!IIIF:
!!!ONB-nifc: UWAGA; części Mszy: Sinfonia, Kyrie, Gloria, Patrem, Sanctus, Benedictus, Agnus, Dona. UWAGA: brak partii cornu primo, cornu secundo
!!!AIN: 5 empty 2 oboe 1 tenor 2 violn 1 vox
!!!key:
**kern	**dynam	**kern	**dynam	**kern	**dynam	**kern	**text	**kern	**kern	**kern	**kern	**kern	**kern	**kern
*part11	*part11	*part10	*part10	*part9	*part9	*part8	*part8	*part7	*part6	*part5	*part4	*part3	*part2	*part1
*staff11	*	*staff10	*	*staff9	*	*staff8	*staff8	*staff7	*staff6	*staff5	*staff4	*staff3	*staff2	*staff1
*Iempty	*	*Ivioln	*	*Ivioln	*	*Itenor	*	*Ivox	*Iempty	*Iempty	*Iempty	*Iempty	*Ioboe	*Ioboe
*I"Fundamento:	*	*I"Violino Secundo	*	*I"Violino Primo	*	*I"Tenore	*	*I"Canto	*I"Clarino Secundo	*I"Clarino Primo	*I"Cornu Secundo	*I"Cornu Primo	*I"Hobois 2do	*I"Hobois Primo
*I'Vc.	*	*I'Vn II	*	*I'Vn I	*	*I'T.	*	*I'C.	*I'Tr-ba in C	*I'Tr-ba in B♭	*I'C. in F	*I'C. in F	*I'Ob. II	*I'Ob. I
*clefF4	*	*clefG2	*	*clefG2	*	*clefC4	*	*clefC1	*clefG2	*clefG2	*clefG2	*clefG2	*clefG2	*clefG2
*	*	*	*	*	*	*	*	*	*	*	*ITrd4c7	*ITrd4c7	*	*
*k[f#]	*	*k[f#]	*	*k[f#]	*	*k[f#]	*	*k[f#]	*k[f#]	*k[f#]	*k[f#]	*k[f#]	*k[f#]	*k[f#]
*G:	*	*G:	*	*G:	*	*G:	*	*G:	*G:	*G:	*G:	*G:	*G:	*G:
*M4/4	*	*M4/4	*	*M4/4	*	*M4/4	*	*M4/4	*M4/4	*M4/4	*M4/4	*M4/4	*M4/4	*M4/4
*met(c)	*	*met(c)	*	*met(c)	*	*met(c)	*	*met(c)	*met(c)	*met(c)	*met(c)	*met(c)	*met(c)	*met(c)
=1	=1	=1	=1	=1	=1	=1	=1	=1	=1	=1	=1	=1	=1	=1
!LO:TX:b:t=Benedictus	!	!LO:TX:b:t=Benedictus	!	!LO:TX:b:t=Benedictus.	!	!	!	!	!	!LO:TX:t=P:problem=w źródle "Tacet Benedictus" zapisane na pięciolinii	!	!	!	!
!	!	!	!	!	!	!	!	!	!LO:TX:t=P:problem=w źródle "Benedictus Tacet" zapisane na pięciolinii	!	!	!	!	!
!LO:TX:a:t=Adagio Solo	!	!LO:TX:a:t=Adagio	!	!	!	!LO:TX:a:t=Adagio	!	!LO:TX:a:t=Bene dictus Tacet oſanna ut Supra	!LO:TX:a:t=Benedictus Tacet	!LO:TX:a:t=Tacet \nBenedictus	!	!	!	!
!	!	!	!	!	!	!	!	!LO:TX:t=P:problem=w źródle "Bene dictus Tacet oſanna ut Supra" zapisane na pięciolinii	!	!	!	!	!	!
8G\L	.	8b\L	.	4gg\	.	00r	.	1ryy	1ryy	1ryy	1ryy	1ryy	1ryy	1ryy
8G\	.	8b\	.	.	.	.	.	.	.	.	.	.	.	.
!	!	!	!	!LO:TUP:a:problem=klamra łukowa, kropka zamiast numeru	!	!	!	!	!	!	!	!	!	!
*	*	*	*	*Xtuplet	*	*	*	*	*	*	*	*	*	*
8G\	.	8b\	.	24gg\LL	.	.	.	.	.	.	.	.	.	.
.	.	.	.	24ff#\	.	.	.	.	.	.	.	.	.	.
.	.	.	.	24ee\JJ	.	.	.	.	.	.	.	.	.	.
!	!	!	!	!LO:TUP:a:problem=klamra łukowa, kropka zamiast numeru	!	!	!	!	!	!	!	!	!	!
8G\J	.	8b\J	.	24dd\LL	.	.	.	.	.	.	.	.	.	.
.	.	.	.	24cc\	.	.	.	.	.	.	.	.	.	.
.	.	.	.	24b\JJ	.	.	.	.	.	.	.	.	.	.
!LO:TX:a:t=P:problem=mixed beam	!	!	!	!LO:TUP:a:problem=klamra łukowa, kropka zamiast numeru	!	!	!	!	!	!	!	!	!	!
8G\L	.	8cc\L	.	24cc\LL	.	.	.	.	.	.	.	.	.	.
.	.	.	.	24dd\	.	.	.	.	.	.	.	.	.	.
.	.	.	.	24ee\JJ	.	.	.	.	.	.	.	.	.	.
8G\	.	8b\J	.	8dd\	.	.	.	.	.	.	.	.	.	.
8BB/	.	8d/L	.	8r	.	.	.	.	.	.	.	.	.	.
8BB/J	.	8d/J	.	8g/	.	.	.	.	.	.	.	.	.	.
=2	=2	=2	=2	=2	=2	=2	=2	=2	=2	=2	=2	=2	=2	=2
*	*	*	*	*2\right	*	*	*	*	*	*	*	*	*	*
!	!	!	!	!LO:TUP:b:problem=klamra łukowa, kropka zamiast numeru	!	!	!	!	!	!	!	!	!	!
8C/L	.	8e/L	.	24g/LL	.	.	.	1ryy	1ryy	1ryy	1ryy	1ryy	1ryy	1ryy
.	.	.	.	24a/	.	.	.	.	.	.	.	.	.	.
.	.	.	.	24b/JJ	.	.	.	.	.	.	.	.	.	.
!	!	!	!	!LO:TUP:a:problem=klamra łukowa, kropka zamiast numeruu	!	!	!	!	!	!	!	!	!	!
8C/	.	8e/	.	24cc\LL	.	.	.	.	.	.	.	.	.	.
.	.	.	.	24dd\	.	.	.	.	.	.	.	.	.	.
.	.	.	.	24ee\JJ	.	.	.	.	.	.	.	.	.	.
!	!	!	!	!LO:TUP:a:problem=klamra łukowa, kropka zamiast numeru	!	!	!	!	!	!	!	!	!	!
8D/	.	8f#/	.	24dd\LL	.	.	.	.	.	.	.	.	.	.
.	.	.	.	24cc\	.	.	.	.	.	.	.	.	.	.
.	.	.	.	24b\JJ	.	.	.	.	.	.	.	.	.	.
!	!	!	!	!LO:TUP:b:problem=klamra łukowa, kropka zamiast numeruu	!	!	!	!	!	!	!	!	!	!
8D/J	.	8f#/J	.	24a/LL	.	.	.	.	.	.	.	.	.	.
.	.	.	.	24g/	.	.	.	.	.	.	.	.	.	.
.	.	.	.	24f#/JJ	.	.	.	.	.	.	.	.	.	.
!	!	!	!	!LO:TX:a:t=P:problem=mixed beam	!	!	!	!	!	!	!	!	!	!
8E\L	.	8g/L	.	8g/L	.	.	.	.	.	.	.	.	.	.
8E\	.	8g/	.	8gg\J	.	.	.	.	.	.	.	.	.	.
8BB\	.	8d/	.	4ggM\	.	.	.	.	.	.	.	.	.	.
8BB\J	.	8d/J	.	.	.	.	.	.	.	.	.	.	.	.
=3	=3	=3	=3	=3	=3	=3	=3	=3	=3	=3	=3	=3	=3	=3
!	!	!	!	!LO:TUP:b:problem=klamra łukowa, kropka zamiast numeru	!	!	!	!	!	!	!	!	!	!
8C/L	.	8e/L	.	24g/LL	.	.	.	1ryy	1ryy	1ryy	1ryy	1ryy	1ryy	1ryy
.	.	.	.	24a/	.	.	.	.	.	.	.	.	.	.
.	.	.	.	24b/JJ	.	.	.	.	.	.	.	.	.	.
!	!	!	!	!LO:TUP:a:problem=klamra łukowa, kropka zamiast numeru	!	!	!	!	!	!	!	!	!	!
8C/	.	8e/	.	24cc\LL	.	.	.	.	.	.	.	.	.	.
.	.	.	.	24dd\	.	.	.	.	.	.	.	.	.	.
.	.	.	.	24ee\JJ	.	.	.	.	.	.	.	.	.	.
!	!	!	!	!LO:TUP:a:problem=klamra łukowa, kropka zamiast numeru	!	!	!	!	!	!	!	!	!	!
8D/	.	8f#/	.	24dd\LL	.	.	.	.	.	.	.	.	.	.
.	.	.	.	24cc\	.	.	.	.	.	.	.	.	.	.
.	.	.	.	24b\JJ	.	.	.	.	.	.	.	.	.	.
!	!	!	!	!LO:TUP:b:problem=klamra łukowa, kropka zamiast numeru	!	!	!	!	!	!	!	!	!	!
8D/J	.	8f#/J	.	24a/LL	.	.	.	.	.	.	.	.	.	.
.	.	.	.	24g/	.	.	.	.	.	.	.	.	.	.
.	.	.	.	24f#/JJ	.	.	.	.	.	.	.	.	.	.
!	!	!LO:TX:a:t=P:problem=mixed beam	!	!	!	!	!	!	!	!	!	!	!	!
.	.	.	.	8qqf#/	.	.	.	.	.	.	.	.	.	.
8GG/L	.	8g/L	.	4g/	.	.	.	.	.	.	.	.	.	.
16BB/L	.	(16dd\L	.	.	.	.	.	.	.	.	.	.	.	.
16AA/JJ	.	16cc\JJ)	.	.	.	.	.	.	.	.	.	.	.	.
!LO:TX:a:t=P:problem=mixed beam	!	!	!	!	!	!	!	!	!	!	!	!	!	!
8GG/L	.	8b\L	.	8r	.	.	.	.	.	.	.	.	.	.
8G\J	.	8dd\J	.	8bb\	.	.	.	.	.	.	.	.	.	.
=4	=4	=4	=4	=4	=4	=4	=4	=4	=4	=4	=4	=4	=4	=4
8r	.	8r	.	16aa\LL	.	.	.	1ryy	1ryy	1ryy	1ryy	1ryy	1ryy	1ryy
.	.	.	.	16cc#X\JJ	.	.	.	.	.	.	.	.	.	.
.	.	.	.	8qqcc#/	.	.	.	.	.	.	.	.	.	.
(8F#\L	.	(8a/L	.	4dd\	.	.	.	.	.	.	.	.	.	.
8E\	.	8g/	.	.	.	.	.	.	.	.	.	.	.	.
8D\J)	.	8f#/J)	.	8bb\	.	.	.	.	.	.	.	.	.	.
8r	.	8r	.	16aa\LL	.	.	.	.	.	.	.	.	.	.
.	.	.	.	16cc#X\JJ	.	.	.	.	.	.	.	.	.	.
.	.	.	.	8qqcc#/	.	.	.	.	.	.	.	.	.	.
(8F#\L	.	8a/L	.	4dd\	.	.	.	.	.	.	.	.	.	.
8E\	.	8g/	.	.	.	.	.	.	.	.	.	.	.	.
8D\J)	.	8f#/J	.	8dd\	.	.	.	.	.	.	.	.	.	.
=5	=5	=5	=5	=5	=5	=5	=5	=5	=5	=5	=5	=5	=5	=5
*	*	*Xtuplet	*	*	*	*	*	*	*	*	*	*	*	*
!	!	!LO:TUP:a:problem=klamra łukowa	!	!LO:TUP:a:problem=klamra łukowa, kropka zamiast numeru	!	!	!	!	!	!	!	!	!	!
8AA/L	.	24a\LL	.	24cc#X\LL	.	00r	.	1ryy	1ryy	1ryy	1ryy	1ryy	1ryy	1ryy
.	.	24b\	.	24dd\	.	.	.	.	.	.	.	.	.	.
.	.	24cc#X\JJ	.	24ee\JJ	.	.	.	.	.	.	.	.	.	.
!	!	!LO:TUP:a:problem=klamra łukowa	!	!LO:TUP:a:problem=klamra łukowa, kropka zamiast numeru	!	!	!	!	!	!	!	!	!	!
8AA/	.	24cc#\LL	.	24ee\LL	.	.	.	.	.	.	.	.	.	.
.	.	24dd\	.	24ff#\	.	.	.	.	.	.	.	.	.	.
.	.	24ee\JJ	.	24gg\JJ	.	.	.	.	.	.	.	.	.	.
8AA/	.	16gg\LL	.	16bb\LL|	.	.	.	.	.	.	.	.	.	.
.	.	16gg\	.	(16bb\	.	.	.	.	.	.	.	.	.	.
8AA/J	.	16ff#\	.	16aa\	.	.	.	.	.	.	.	.	.	.
.	.	16ee\JJ	.	16gg\JJ)	.	.	.	.	.	.	.	.	.	.
8D\L	.	8ee\L	.	8ggM\L	.	.	.	.	.	.	.	.	.	.
8D\	.	8dd\J	.	8ee\J	.	.	.	.	.	.	.	.	.	.
8D\	.	(16f#/KL	.	(16aa\KL	.	.	.	.	.	.	.	.	.	.
.	.	8.a/J)	.	8.ccn\J)	.	.	.	.	.	.	.	.	.	.
8F#\J	.	.	.	.	.	.	.	.	.	.	.	.	.	.
!	!	!	!	!LO:LB:g=original	!	!	!	!	!	!	!	!	!	!
=6	=6	=6	=6	=6	=6	=6	=6	=6	=6	=6	=6	=6	=6	=6
!	!	!	!	!LO:TX:a:t=P:problem=mixed beam	!	!	!	!	!	!	!	!	!	!
8G\L	.	(16b\KL	.	16b/KL	.	.	.	1ryy	1ryy	1ryy	1ryy	1ryy	1ryy	1ryy
.	.	8.dd\J)	.	8.gg\J	.	.	.	.	.	.	.	.	.	.
8B\	.	.	.	.	.	.	.	.	.	.	.	.	.	.
8D\	.	(16f#/KL	.	(16aa\KL	.	.	.	.	.	.	.	.	.	.
.	.	8.a/J)	.	8.cc\J)	.	.	.	.	.	.	.	.	.	.
8F#\J	.	.	.	.	.	.	.	.	.	.	.	.	.	.
!	!	!	!	!LO:TX:a:t=P:problem=mixed beam	!	!	!	!	!	!	!	!	!	!
8G\L	.	8g\L	.	16b/LL	.	.	.	.	.	.	.	.	.	.
.	.	.	.	(16gg'\	.	.	.	.	.	.	.	.	.	.
8c\	.	8ee\	.	16gg'\	.	.	.	.	.	.	.	.	.	.
.	.	.	.	16gg'\JJ)	.	.	.	.	.	.	.	.	.	.
*	*	*	*	*tremolo	*	*	*	*	*	*	*	*	*	*
8B\	.	8dd\	.	16gg'\L	.	.	.	.	.	.	.	.	.	.
.	.	.	.	16gg'\	.	.	.	.	.	.	.	.	.	.
8A\J	.	8cc\J	.	16gg'\	.	.	.	.	.	.	.	.	.	.
.	.	.	.	16gg'\J	.	.	.	.	.	.	.	.	.	.
*	*	*	*	*Xtremolo	*	*	*	*	*	*	*	*	*	*
=7	=7	=7	=7	=7	=7	=7	=7	=7	=7	=7	=7	=7	=7	=7
8G\L	.	32b\KLL	.	(32gg\KLL	.	.	.	1ryy	1ryy	1ryy	1ryy	1ryy	1ryy	1ryy
.	.	16.ee\	.	16.ee\JJ)	.	.	.	.	.	.	.	.	.	.
8C\	.	32dd\K	.	(32dd\KLL	.	.	.	.	.	.	.	.	.	.
.	.	16.cc\JJ	.	16.cc\JJ)	.	.	.	.	.	.	.	.	.	.
8D\	.	32b\KLL	.	32b/KLL	.	.	.	.	.	.	.	.	.	.
.	.	16.a\	.	16.a/JJ	.	.	.	.	.	.	.	.	.	.
8D\J	.	32g\K	.	32g/KLL	.	.	.	.	.	.	.	.	.	.
.	.	16.f#\JJ	.	16.f#/JJ	.	.	.	.	.	.	.	.	.	.
!	!	!LO:LB:g=original	!	!	!	!	!	!	!	!	!	!	!	!
!	!LO:DY:a	!LO:TX:a:t=P:problem=mixed beam	!LO:DY:a	!LO:TX:a:t=P:problem=mixed beam	!LO:DY:b	!	!	!	!	!	!	!	!	!
!	!	!	!	!	!LO:DY:t=Pia	!	!	!	!	!	!	!	!	!
8GG/L	p	8g/L	p	16g/LL	p	.	.	.	.	.	.	.	.	.
.	.	.	.	(16gg'\	.	.	.	.	.	.	.	.	.	.
8C/	.	8ee\	.	16gg'\	.	.	.	.	.	.	.	.	.	.
.	.	.	.	16gg'\JJ	.	.	.	.	.	.	.	.	.	.
*	*	*	*	*tremolo	*	*	*	*	*	*	*	*	*	*
8BB/	.	8dd\	.	16gg'\)L	.	.	.	.	.	.	.	.	.	.
.	.	.	.	16gg'\	.	.	.	.	.	.	.	.	.	.
8AA/J	.	8cc\J	.	16gg'\	.	.	.	.	.	.	.	.	.	.
.	.	.	.	16gg'\J	.	.	.	.	.	.	.	.	.	.
*	*	*	*	*Xtremolo	*	*	*	*	*	*	*	*	*	*
=8	=8	=8	=8	=8	=8	=8	=8	=8	=8	=8	=8	=8	=8	=8
8GG/L	.	(32b\KLL	.	(32gg\KLL	.	.	.	1ryy	1ryy	1ryy	1ryy	1ryy	1ryy	1ryy
.	.	16.ee\)	.	16.ee\JJ)	.	.	.	.	.	.	.	.	.	.
8C/	.	(32dd\K	.	(32dd\KLL	.	.	.	.	.	.	.	.	.	.
.	.	16.cc\JJ)	.	16.cc\JJ)	.	.	.	.	.	.	.	.	.	.
8D/	.	(32b/KLL	.	(32b/KLL	.	.	.	.	.	.	.	.	.	.
.	.	16.a/)	.	16.a/JJ)	.	.	.	.	.	.	.	.	.	.
8D/J	.	(32g/K	.	(32g/KLL	.	.	.	.	.	.	.	.	.	.
.	.	16.f#/JJ)	.	16.f#/JJ)	.	.	.	.	.	.	.	.	.	.
!	!	!	!	!	!LO:DY:t=for	!	!	!	!	!	!	!	!	!
!LO:LB:g=original	!	!	!	!	!LO:DY:b	!	!	!	!	!	!	!	!	!
8GG/L	.	(32bb\KLL	.	(32bb\KLL	f	.	.	.	.	.	.	.	.	.
.	.	16.gg\)	.	16.gg\JJ)	.	.	.	.	.	.	.	.	.	.
8AA/	.	(32ff#\K	.	(32ff#\KLL	.	.	.	.	.	.	.	.	.	.
.	.	16.ee\JJ)	.	16.ee\JJ)	.	.	.	.	.	.	.	.	.	.
8BB/	.	(32dd\KLL	.	16dd\LL	.	.	.	.	.	.	.	.	.	.
.	.	16.ee\)	.	.	.	.	.	.	.	.	.	.	.	.
.	.	.	.	16ee\	.	.	.	.	.	.	.	.	.	.
8C/J	.	(32cc\K	.	16cc\	.	.	.	.	.	.	.	.	.	.
.	.	16.a\JJ)	.	.	.	.	.	.	.	.	.	.	.	.
.	.	.	.	16a\JJ	.	.	.	.	.	.	.	.	.	.
=9	=9	=9	=9	=9	=9	=9	=9	=9	=9	=9	=9	=9	=9	=9
4D\	.	4d/	.	4d/	.	1r	.	1ryy	1ryy	1ryy	1ryy	1ryy	1ryy	1ryy
4D\	.	4a/	.	4aM/	.	.	.	.	.	.	.	.	.	.
4GG;/	.	8g/L	.	8g/L	.	.	.	.	.	.	.	.	.	.
.	.	8d/J	.	8d/J	.	.	.	.	.	.	.	.	.	.
4r	.	4G;/	.	4G;/	.	.	.	.	.	.	.	.	.	.
=10	=10	=10	=10	=10	=10	=10	=10	=10	=10	=10	=10	=10	=10	=10
!	!LO:DY:rj	!	!LO:DY:t=p&colon;	!	!LO:DY:t=p&colon;	!	!	!	!	!	!	!	!	!
!	!LO:DY:a	!	!LO:DY:a	!	!LO:DY:a	!LO:TX:a:t=Solo	!	!	!	!	!	!	!	!
8G\L	p	8b\L	p	4gg\	p	4g\	Be-	1ryy	1ryy	1ryy	1ryy	1ryy	1ryy	1ryy
8G\	.	8b\	.	.	.	.	.	.	.	.	.	.	.	.
!	!	!	!	!LO:TUP:a:problem=klamra łukowa, kropka zamiast numeru	!	!	!	!	!	!	!	!	!	!
*	*	*	*	*	*	*Xtuplet	*	*	*	*	*	*	*	*
8G\	.	8b\	.	24gg\LL	.	24g\LL	.	.	.	.	.	.	.	.
.	.	.	.	24ff#\	.	24f#\	.	.	.	.	.	.	.	.
.	.	.	.	24ee\JJ	.	24e\JJ	.	.	.	.	.	.	.	.
!	!	!	!	!LO:TUP:a:problem=klamra łukowa, kropka zamiast numeru	!	!	!	!	!	!	!	!	!	!
8G\J	.	8b\J	.	24dd\LL	.	24d\LL	.	.	.	.	.	.	.	.
.	.	.	.	24cc\	.	24c\	.	.	.	.	.	.	.	.
.	.	.	.	24b\JJ	.	24B\JJ	-ne-	.	.	.	.	.	.	.
!LO:TX:a:t=P:problem=mixed beam	!	!LO:TUP:a:problem=klamra łukowa, kropka zamiast numeru	!	!	!	!	!	!	!	!	!	!	!	!
8G\L	.	8cc\L	.	24cc\LL	.	24c\LL	-di-	.	.	.	.	.	.	.
.	.	.	.	24dd\	.	24d\	.	.	.	.	.	.	.	.
.	.	.	.	24ee\J	.	24e\JJ	.	.	.	.	.	.	.	.
8G\	.	8b\J	.	8dd\J	.	8d\	-ctus	.	.	.	.	.	.	.
8BB/	.	8d/L	.	8r	.	8r	.	.	.	.	.	.	.	.
8BB/J	.	8d/J	.	8g/	.	8G/	qui	.	.	.	.	.	.	.
=11	=11	=11	=11	=11	=11	=11	=11	=11	=11	=11	=11	=11	=11	=11
!	!	!	!	!LO:TUP:b:problem=klamra łukowa, kropka zamiast numeru	!	!	!	!	!	!	!	!	!	!
8C/L	.	8e/L	.	24g/LL	.	24G/LL	ve-	1ryy	1ryy	1ryy	1ryy	1ryy	1ryy	1ryy
.	.	.	.	24a/	.	24A/	.	.	.	.	.	.	.	.
.	.	.	.	24b/JJ	.	24B/JJ	.	.	.	.	.	.	.	.
!	!	!	!	!LO:TUP:a:problem=klamra łukowa, kropka zamiast numeru	!	!	!	!	!	!	!	!	!	!
8C/	.	8e/	.	24cc\LL	.	24c\LL	.	.	.	.	.	.	.	.
.	.	.	.	24dd\	.	24d\	.	.	.	.	.	.	.	.
.	.	.	.	24ee\JJ	.	24e\JJ	.	.	.	.	.	.	.	.
!	!	!	!	!LO:TUP:a:problem=klamra łukowa, kropka zamiast numeru	!	!	!	!	!	!	!	!	!	!
8D/	.	8f#/	.	24dd\LL	.	24d\LL	.	.	.	.	.	.	.	.
.	.	.	.	24cc\	.	24c\	.	.	.	.	.	.	.	.
.	.	.	.	24b\JJ	.	24B\JJ	.	.	.	.	.	.	.	.
!	!	!	!	!LO:TUP:b:problem=klamra łukowa, kropka zamiast numeru	!	!	!	!	!	!	!	!	!	!
8D/J	.	8f#/J	.	24a/LL	.	24A/LL	.	.	.	.	.	.	.	.
.	.	.	.	24g/	.	24G/	.	.	.	.	.	.	.	.
.	.	.	.	24f#/JJ	.	24F#/JJ	.	.	.	.	.	.	.	.
!	!	!	!	!LO:LB:g=original	!	!	!	!	!	!	!	!	!	!
!	!	!	!	!LO:TX:a:t=P:problem=mixed beam	!	!	!	!	!	!	!	!	!	!
8E\L	.	8g/L	.	8g/L	.	4G/	-nit	.	.	.	.	.	.	.
8E\	.	8g/	.	8gg\J	.	.	.	.	.	.	.	.	.	.
8BB\	.	8d/	.	4ggM\	.	4g\	qui	.	.	.	.	.	.	.
8BB\J	.	8d/J	.	.	.	.	.	.	.	.	.	.	.	.
=12	=12	=12	=12	=12	=12	=12	=12	=12	=12	=12	=12	=12	=12	=12
!	!	!	!	!LO:TUP:b:problem=klamra łukowa, kropka zamiast numer	!	!	!	!	!	!	!	!	!	!
!	!	!	!	!	!	!	!LO:SIC:s=ve	!	!	!	!	!	!	!
8C/L	.	8e/L	.	24g/LL	.	24G/LL	vi-	1ryy	1ryy	1ryy	1ryy	1ryy	1ryy	1ryy
.	.	.	.	24a/	.	24A/	.	.	.	.	.	.	.	.
.	.	.	.	24b/JJ	.	24B/JJ	.	.	.	.	.	.	.	.
!	!	!	!	!LO:TUP:a:problem=klamra łukowa, kropka zamiast numer	!	!	!	!	!	!	!	!	!	!
8C/	.	8e/	.	24cc\LL	.	24c\LL	.	.	.	.	.	.	.	.
.	.	.	.	24dd\	.	24d\	.	.	.	.	.	.	.	.
.	.	.	.	24ee\JJ	.	24e\JJ	.	.	.	.	.	.	.	.
!	!	!	!	!LO:TUP:a:problem=klamra łukowa, kropka zamiast numer	!	!	!	!	!	!	!	!	!	!
8D/	.	8f#/	.	24dd\LL	.	24d\LL	.	.	.	.	.	.	.	.
.	.	.	.	24cc\	.	24c\	.	.	.	.	.	.	.	.
.	.	.	.	24b\JJ	.	24B\JJ	.	.	.	.	.	.	.	.
!	!	!	!	!LO:TUP:b:problem=klamra łukowa, kropka zamiast numeru	!	!	!	!	!	!	!	!	!	!
8D/J	.	8f#/J	.	24a/LL	.	24A/LL	.	.	.	.	.	.	.	.
.	.	.	.	24g/	.	24G/	.	.	.	.	.	.	.	.
.	.	.	.	24f#/JJ	.	24F#/JJ	.	.	.	.	.	.	.	.
!LO:TX:a:t=P:problem=mixed beam	!	!	!	!LO:TX:a:t=P:problem=mixed beam	!	!	!	!	!	!	!	!	!	!
8GG/L	.	8g/L	.	8g/L	.	4G/	-nit	.	.	.	.	.	.	.
8G\	.	8b/	.	8dd\	.	.	.	.	.	.	.	.	.	.
8G\	.	8b/	.	8dd\	.	4r	.	.	.	.	.	.	.	.
8G\J	.	8b/J	.	8dd\J	.	.	.	.	.	.	.	.	.	.
!	!	!	!	!	!	!LO:LB:g=original	!	!	!	!	!	!	!	!
=13	=13	=13	=13	=13	=13	=13	=13	=13	=13	=13	=13	=13	=13	=13
*2\right	*	*	*	*	*	*	*	*	*	*	*	*	*	*
*tremolo	*	*	*	*	*	*	*	*	*	*	*	*	*	*
8G\L	.	8cc\L	.	8ee\L	.	4e\	Be-	1ryy	1ryy	1ryy	1ryy	1ryy	1ryy	1ryy
8G\	.	8cc\	.	8ee\	.	.	.	.	.	.	.	.	.	.
8G\	.	8cc\	.	8ee\	.	(16e\LL	.	.	.	.	.	.	.	.
.	.	.	.	.	.	16c\JJ)	.	.	.	.	.	.	.	.
8G\J	.	8cc\J	.	8ee\J	.	(16g\LL	.	.	.	.	.	.	.	.
.	.	.	.	.	.	16e\JJ)	.	.	.	.	.	.	.	.
8G\L	.	8cc\L	.	8ee\L	.	8e\	-ne-	.	.	.	.	.	.	.
8G\	.	8b\	.	8dd\	.	8d\	-di-	.	.	.	.	.	.	.
8G\	.	8b\	.	8dd\	.	8r	.	.	.	.	.	.	.	.
8G\J	.	8b\J	.	8dd\J	.	8g\	-ctus	.	.	.	.	.	.	.
=14	=14	=14	=14	=14	=14	=14	=14	=14	=14	=14	=14	=14	=14	=14
8D/L	.	8a/L	.	8cc\L	.	16a\LL	qui	1ryy	1ryy	1ryy	1ryy	1ryy	1ryy	1ryy
.	.	.	.	.	.	16f#\JJ	.	.	.	.	.	.	.	.
.	.	.	.	.	.	8qqd/	.	.	.	.	.	.	.	.
!	!	!	!	!	!	!	!LO:SIC:s=vi	!	!	!	!	!	!	!
8D/	.	8a/	.	8cc\	.	4.c\	vi-	.	.	.	.	.	.	.
8D/	.	8a/	.	8cc\	.	.	.	.	.	.	.	.	.	.
8D/J	.	8a/J	.	8cc\J	.	.	.	.	.	.	.	.	.	.
*Xtremolo	*	*	*	*	*	*	*	*	*	*	*	*	*	*
8G\L	.	8g/	.	8b\	.	8B\	-nit	.	.	.	.	.	.	.
8G\	.	4ee\	.	4gg\	.	8g\	.	.	.	.	.	.	.	.
8C#\	.	.	.	.	.	16g\LL	in	.	.	.	.	.	.	.
.	.	.	.	.	.	16e\JJ	.	.	.	.	.	.	.	.
8D\J	.	8dd\	.	8ff#\	.	16f#\	no-	.	.	.	.	.	.	.
.	.	.	.	.	.	16d\	-mine	.	.	.	.	.	.	.
!	!	!LO:LB:g=original	!	!	!	!	!	!	!	!	!	!	!	!
=15	=15	=15	=15	=15	=15	=15	=15	=15	=15	=15	=15	=15	=15	=15
*tremolo	*	*	*	*	*	*	*	*	*	*	*	*	*	*
8A\L	.	16r	.	16r	.	(16c#X\KL	Do-	1ryy	1ryy	1ryy	1ryy	1ryy	1ryy	1ryy
.	.	(16cc#X'\LL	.	(16ee'\LL	.	8.e\J)	.	.	.	.	.	.	.	.
8A\	.	16cc#'\	.	16ee'\	.	.	.	.	.	.	.	.	.	.
.	.	16cc#'\JJ)	.	16ee'\JJ)	.	.	.	.	.	.	.	.	.	.
8A\	.	16r	.	16r	.	(16d\KL	.	.	.	.	.	.	.	.
.	.	(16dd'\LL	.	(16ff#'\LL	.	8.f#\J)	.	.	.	.	.	.	.	.
8A\J	.	16dd'\	.	16ff#'\	.	.	.	.	.	.	.	.	.	.
.	.	16dd'\JJ)	.	16ff#'\JJ)	.	.	.	.	.	.	.	.	.	.
8A\L	.	16r	.	16r	.	(16e\KL	.	.	.	.	.	.	.	.
.	.	(16ee'\LL	.	16gg'\LL	.	8.g\J)	.	.	.	.	.	.	.	.
8A\	.	16ee'\	.	16gg'\	.	.	.	.	.	.	.	.	.	.
.	.	16ee'\JJ)	.	16gg'\JJ	.	.	.	.	.	.	.	.	.	.
8A\	.	16r	.	16r	.	(16f#\KL	.	.	.	.	.	.	.	.
.	.	(16ff#'\LL	.	16aa'\LL	.	8.a\J)	.	.	.	.	.	.	.	.
8A\J	.	16ff#'\	.	16aa'\	.	.	.	.	.	.	.	.	.	.
.	.	16ff#'\JJ)	.	16aa'\JJ	.	.	.	.	.	.	.	.	.	.
*Xtremolo	*	*	*	*	*	*	*	*	*	*	*	*	*	*
=16	=16	=16	=16	=16	=16	=16	=16	=16	=16	=16	=16	=16	=16	=16
!LO:TX:a:t=P:problem=mixed beam	!	!	!	!	!	!	!	!	!	!	!	!	!	!
8D\L	.	8g/L	.	8ff#\L	.	16f#\LL	.	1ryy	1ryy	1ryy	1ryy	1ryy	1ryy	1ryy
.	.	.	.	.	.	16d\	.	.	.	.	.	.	.	.
8G\	.	8g/J	.	8ee\J	.	16e\	.	.	.	.	.	.	.	.
.	.	.	.	.	.	16c\JJ	.	.	.	.	.	.	.	.
.	.	8qqf#/	.	8qqdd/	.	.	.	.	.	.	.	.	.	.
8A\	.	4e/	.	4cc#X\	.	8.c#X\	.	.	.	.	.	.	.	.
8AA/J	.	.	.	.	.	.	.	.	.	.	.	.	.	.
.	.	.	.	.	.	16c#\	-mi-	.	.	.	.	.	.	.
8D\L	.	8f#/L	.	8dd\L	.	8d\	-ni	.	.	.	.	.	.	.
8D\	.	8a/J	.	8ff#\J	.	8f#\	in	.	.	.	.	.	.	.
8G\	.	(16a/LL	.	(16ff#\LL	.	16f#\LL	no-	.	.	.	.	.	.	.
.	.	16g/)	.	16ee\)	.	16e\JJ	.	.	.	.	.	.	.	.
8G\J	.	(16g/	.	(16ee\	.	16e\	-mi-	.	.	.	.	.	.	.
.	.	16f#/JJ)	.	16dd\JJ)	.	16d\	-ne	.	.	.	.	.	.	.
!LO:LB:g=original	!	!	!	!	!	!	!	!	!	!	!	!	!	!
=17	=17	=17	=17	=17	=17	=17	=17	=17	=17	=17	=17	=17	=17	=17
*	*	*	*	*tremolo	*	*	*	*	*	*	*	*	*	*
!LO:TX:a:t=P:problem=mixed beam	!	!	!	!	!	!	!	!	!	!	!	!	!	!
!	!	!	!	!LO:TX:t=P:problem=w źródle łuk na nutą	!	!	!	!	!	!	!	!	!	!
8A\L	.	(16e'/LL	.	16cc'\L	.	(16c#X\KL	Do-	1ryy	1ryy	1ryy	1ryy	1ryy	1ryy	1ryy
.	.	16e'/	.	16cc'\	.	8.A\J)	.	.	.	.	.	.	.	.
8AA/	.	16e'/	.	16cc'\	.	.	.	.	.	.	.	.	.	.
.	.	16e'/JJ)	.	16cc'\J	.	.	.	.	.	.	.	.	.	.
!	!	!	!	!LO:TX:t=P:problem=w źródle łuk na nutą	!	!	!	!	!	!	!	!	!	!
!	!	!	!	!	!	!LO:LB:g=original	!	!	!	!	!	!	!	!
8AA/	.	(16f#'/LL	.	16dd'\L	.	(16d\KL	.	.	.	.	.	.	.	.
.	.	16f#'/	.	16dd'\	.	8.A\J)	.	.	.	.	.	.	.	.
8AA/J	.	16f#'/	.	16dd'\	.	.	.	.	.	.	.	.	.	.
.	.	16f#'/JJ)	.	16dd'\J	.	.	.	.	.	.	.	.	.	.
*tremolo	*	*	*	*	*	*	*	*	*	*	*	*	*	*
!	!	!	!	!LO:TX:t=P:problem=w źródle łuk na nutą	!	!	!	!	!	!	!	!	!	!
8AA/L	.	(16cc#X'\LL	.	16ee'\L	.	(16e\KL	.	.	.	.	.	.	.	.
.	.	16cc#'\	.	16ee'\	.	8.A\J)	.	.	.	.	.	.	.	.
8AA/	.	16cc#'\	.	16ee'\	.	.	.	.	.	.	.	.	.	.
.	.	16cc#'\JJ)	.	16ee'\J	.	.	.	.	.	.	.	.	.	.
!	!	!	!	!LO:TX:t=P:problem=w źródle łuk na nutą	!	!	!	!	!	!	!	!	!	!
8AA/	.	(16dd'\LL	.	16ff#'\L	.	(16f#\KL	.	.	.	.	.	.	.	.
.	.	16dd'\	.	16ff#'\	.	8.A\J)	.	.	.	.	.	.	.	.
8AA/J	.	16dd'\	.	16ff#'\	.	.	.	.	.	.	.	.	.	.
.	.	16dd'\JJ)	.	16ff#'\J	.	.	.	.	.	.	.	.	.	.
*Xtremolo	*	*	*	*Xtremolo	*	*	*	*	*	*	*	*	*	*
!	!	!	!	!LO:LB:g=original	!	!	!	!	!	!	!	!	!	!
=18	=18	=18	=18	=18	=18	=18	=18	=18	=18	=18	=18	=18	=18	=18
8AA/L	.	8ee\	.	4gg\	.	4g\	.	1ryy	1ryy	1ryy	1ryy	1ryy	1ryy	1ryy
8AA/	.	4ee\	.	.	.	.	.	.	.	.	.	.	.	.
8C#X/	.	.	.	8gg\L	.	16g\LL	.	.	.	.	.	.	.	.
.	.	.	.	.	.	16e\	.	.	.	.	.	.	.	.
8D/J	.	8dd\	.	8ff#\J	.	16f#\	.	.	.	.	.	.	.	.
.	.	.	.	.	.	16d\JJ	.	.	.	.	.	.	.	.
8A\L	.	8cc#X\L|	.	8ee\L	.	8c#X\L	.	.	.	.	.	.	.	.
8G\	.	(8cc#\	.	8ee\	.	16B\L	.	.	.	.	.	.	.	.
.	.	.	.	.	.	16A\JJ	.	.	.	.	.	.	.	.
8F#\	.	8dd\	.	8ff#\	.	8d\L	.	.	.	.	.	.	.	.
8G\J	.	8ee\J)	.	8gg\J	.	8e\J	.	.	.	.	.	.	.	.
=19	=19	=19	=19	=19	=19	=19	=19	=19	=19	=19	=19	=19	=19	=19
!LO:TX:a:t=P:problem=mixed beam	!	!	!	!	!	!	!	!	!	!	!	!	!	!
8A\L	.	4dd\	.	4ff#\	.	4d\	.	1ryy	1ryy	1ryy	1ryy	1ryy	1ryy	1ryy
8A\	.	.	.	.	.	.	.	.	.	.	.	.	.	.
8AA/	.	4cc#X\	.	4eeM\	.	8.e\	.	.	.	.	.	.	.	.
8AA/J	.	.	.	.	.	.	.	.	.	.	.	.	.	.
.	.	.	.	.	.	16e\	-mi-	.	.	.	.	.	.	.
!	!	!	!LO:DY:t=for	!	!	!	!	!	!	!	!	!	!	!
!	!	!	!LO:DY:a	!	!LO:DY:b	!	!	!	!	!	!	!	!	!
8D\L	.	8dd\L|	f	(16dd'\LL	f	4d\	-ni	.	.	.	.	.	.	.
.	.	.	.	16dd'\	.	.	.	.	.	.	.	.	.	.
!	!LO:DY:a	!	!	!	!	!	!	!	!	!	!	!	!	!
8G\	f	(8b\	.	16dd'\	.	.	.	.	.	.	.	.	.	.
.	.	.	.	16dd'\JJ)	.	.	.	.	.	.	.	.	.	.
8F#\	.	8a\	.	(16dd'\LL	.	4r	.	.	.	.	.	.	.	.
.	.	.	.	16dd'\	.	.	.	.	.	.	.	.	.	.
8E\J	.	8g\J)	.	16dd'\	.	.	.	.	.	.	.	.	.	.
.	.	.	.	16dd'\JJ)	.	.	.	.	.	.	.	.	.	.
=20	=20	=20	=20	=20	=20	=20	=20	=20	=20	=20	=20	=20	=20	=20
!LO:TX:a:t=P:problem=mixed beam	!	!	!	!	!	!	!	!	!	!	!	!	!	!
8D\L	.	32f#/KLL	.	(32dd\KLL	.	0r	.	1ryy	1ryy	1ryy	1ryy	1ryy	1ryy	1ryy
.	.	16.b/	.	16.b\)	.	.	.	.	.	.	.	.	.	.
8G\	.	32a/K	.	(32a\K	.	.	.	.	.	.	.	.	.	.
.	.	16.g/JJ	.	16.g\JJ)	.	.	.	.	.	.	.	.	.	.
8A\	.	32f#/KLL	.	32f#/KLL	.	.	.	.	.	.	.	.	.	.
.	.	16.e/	.	16.e/	.	.	.	.	.	.	.	.	.	.
8AA/J	.	32d/K	.	32d/K	.	.	.	.	.	.	.	.	.	.
.	.	16.c#X/JJ	.	16.c/JJ	.	.	.	.	.	.	.	.	.	.
!	!	!	!LO:DY:t=pia	!	!	!	!	!	!	!	!	!	!	!
!	!LO:DY:a	!LO:LB:g=original	!LO:DY:a	!	!LO:DY:a	!	!	!	!	!	!	!	!	!
!	!	!LO:TX:a:t=P:problem=mixed beam	!	!	!	!	!	!	!	!	!	!	!	!
!	!	!	!	!LO:TX:a:t=P:problem=mixed beam	!	!	!	!	!	!	!	!	!	!
8D\L	p	8d/L	p	16d/LL	p	.	.	.	.	.	.	.	.	.
.	.	.	.	(16dd'\	.	.	.	.	.	.	.	.	.	.
8G\	.	(8b\	.	16dd'\	.	.	.	.	.	.	.	.	.	.
.	.	.	.	16dd'\JJ)	.	.	.	.	.	.	.	.	.	.
8F#\	.	8a\	.	(16dd'\LL	.	.	.	.	.	.	.	.	.	.
.	.	.	.	16dd'\	.	.	.	.	.	.	.	.	.	.
8E\J	.	8g\J)	.	16dd'\	.	.	.	.	.	.	.	.	.	.
.	.	.	.	16dd'\JJ)	.	.	.	.	.	.	.	.	.	.
=21	=21	=21	=21	=21	=21	=21	=21	=21	=21	=21	=21	=21	=21	=21
!LO:TX:a:t=P:problem=mixed beam	!	!	!	!	!	!	!	!	!	!	!	!	!	!
8D\L	.	32f#/KLL	.	(32dd\KLL	.	.	.	1ryy	1ryy	1ryy	1ryy	1ryy	1ryy	1ryy
.	.	16.b/JJ	.	16.b\JJ)	.	.	.	.	.	.	.	.	.	.
!	!	!LO:TX:a:t=P:problem=mixed beam	!	!LO:TX:a:t=P:problem=mixed beam	!	!	!	!	!	!	!	!	!	!
8G\	.	32a\KLL	.	32a/KLL	.	.	.	.	.	.	.	.	.	.
.	.	16.gg\JJ	.	16.gg\JJ	.	.	.	.	.	.	.	.	.	.
8A\	.	(32ff#\KLL	.	(32ff#\KLL	.	.	.	.	.	.	.	.	.	.
.	.	16.ee\)	.	16.ee\)	.	.	.	.	.	.	.	.	.	.
8AA/J	.	(32dd\K	.	(32dd\K	.	.	.	.	.	.	.	.	.	.
.	.	16.cc\JJ)	.	16.cc#X\JJ)	.	.	.	.	.	.	.	.	.	.
!	!	!	!	!	!LO:DY:t=for	!	!	!	!	!	!	!	!	!
!	!LO:DY:a	!	!	!	!LO:DY:b	!	!	!	!	!	!	!	!	!
8E\L	f	(32ff#\KLL	.	(32ff#\KLL	f	.	.	.	.	.	.	.	.	.
.	.	16.dd\)	.	16.dd\JJ)	.	.	.	.	.	.	.	.	.	.
8E\	.	(32cc\K	.	(32cc#X\KLL	.	.	.	.	.	.	.	.	.	.
.	.	16.b\JJ)	.	16.b\JJ)	.	.	.	.	.	.	.	.	.	.
8F#\	.	32a/KLL	.	(32a/KLL	.	.	.	.	.	.	.	.	.	.
.	.	16.b/	.	16.b/JJ)	.	.	.	.	.	.	.	.	.	.
8G\J	.	32g/K	.	(32g/KLL	.	.	.	.	.	.	.	.	.	.
.	.	16.e/JJ	.	16.e/JJ)	.	.	.	.	.	.	.	.	.	.
=22	=22	=22	=22	=22	=22	=22	=22	=22	=22	=22	=22	=22	=22	=22
!LO:TX:a:t=P:problem=mixed beam	!	!	!	!	!	!	!	!	!	!	!	!	!	!
8A\L	.	4A/	.	4A/	.	1r	.	1ryy	1ryy	1ryy	1ryy	1ryy	1ryy	1ryy
8A\	.	.	.	.	.	.	.	.	.	.	.	.	.	.
8AA/	.	4e/	.	4eM/	.	.	.	.	.	.	.	.	.	.
8AA/J	.	.	.	.	.	.	.	.	.	.	.	.	.	.
4D\	.	8d/L	.	8d/L	.	.	.	.	.	.	.	.	.	.
.	.	8A/J	.	8A/J	.	.	.	.	.	.	.	.	.	.
4r	.	4d/	.	4d/	.	.	.	.	.	.	.	.	.	.
=23	=23	=23	=23	=23	=23	=23	=23	=23	=23	=23	=23	=23	=23	=23
!	!LO:DY:t=p&colon;	!	!	!	!	!	!	!	!	!	!	!	!	!
!	!	!	!LO:DY:t=pia	!	!	!	!	!	!	!	!	!	!	!
!	!LO:DY:a	!	!LO:DY:a	!	!	!	!	!	!	!	!	!	!	!
8D\L	p	8f#/L	p	4dd\	.	4d\	Be-	1ryy	1ryy	1ryy	1ryy	1ryy	1ryy	1ryy
8D\	.	8f#/	.	.	.	.	.	.	.	.	.	.	.	.
!	!	!	!	!LO:TUP:a:problem=klamra łukowa, kropka zamiast numeru	!	!	!	!	!	!	!	!	!	!
8D\	.	8f#/	.	24dd\LL	.	24d\LL	.	.	.	.	.	.	.	.
.	.	.	.	24cc#X\	.	24c#X\	.	.	.	.	.	.	.	.
.	.	.	.	24b\JJ	.	24B\JJ	.	.	.	.	.	.	.	.
!	!	!	!	!LO:TUP:b:problem=klamra łukowa	!	!	!	!	!	!	!	!	!	!
8D\J	.	8f#/J	.	24a/LL	.	24A\LL	-ne-	.	.	.	.	.	.	.
.	.	.	.	24g/	.	24G\	.	.	.	.	.	.	.	.
.	.	.	.	24f#/JJ	.	24F#\JJ	.	.	.	.	.	.	.	.
8D\L	.	8g/L	.	24g/LL	.	24G/LL	-di-	.	.	.	.	.	.	.
.	.	.	.	24a/	.	24A/	.	.	.	.	.	.	.	.
.	.	.	.	24b/J	.	24B/JJ	.	.	.	.	.	.	.	.
8D\	.	8f#/	.	8a/J	.	8A/	-ctus	.	.	.	.	.	.	.
8F#\	.	8a/	.	8r	.	8r	.	.	.	.	.	.	.	.
8F#\J	.	8a/J	.	8dd\	.	8d\	qui	.	.	.	.	.	.	.
!	!	!	!	!LO:LB:g=original	!	!	!	!	!	!	!	!	!	!
=24	=24	=24	=24	=24	=24	=24	=24	=24	=24	=24	=24	=24	=24	=24
!	!	!	!	!LO:TUP:a:problem=klamra łukowa, kropka zamiast numeru	!	!LO:TUP:a:problem=klamra łukowa, kropka zamiast numeru	!	!	!	!	!	!	!	!
!	!	!	!	!	!	!	!LO:SIC:s=ve	!	!	!	!	!	!	!
8G\L	.	8b\L	.	24dd\LL	.	24d\LL	vi-	1ryy	1ryy	1ryy	1ryy	1ryy	1ryy	1ryy
.	.	.	.	24ee\	.	24e\	.	.	.	.	.	.	.	.
.	.	.	.	24ff#\JJ	.	24f#\JJ	.	.	.	.	.	.	.	.
!	!	!	!	!LO:TUP:a:problem=klamra łukowa, kropka zamiast numeru	!	!LO:TUP:a:problem=klamra łukowa, kropka zamiast numeru	!	!	!	!	!	!	!	!
8G\	.	8b\	.	24gg\LL	.	24g\LL	.	.	.	.	.	.	.	.
.	.	.	.	24aa\	.	24a\	.	.	.	.	.	.	.	.
.	.	.	.	24bb\JJ	.	24b\JJ	.	.	.	.	.	.	.	.
!	!	!	!	!LO:TUP:a:problem=klamra łukowa, kropka zamiast numeru	!	!LO:TUP:a:problem=klamra łukowa, kropka zamiast numeru	!	!	!	!	!	!	!	!
8A\	.	8cc#X\	.	24aa\LL	.	24a\LL	.	.	.	.	.	.	.	.
.	.	.	.	24gg\	.	24g\	.	.	.	.	.	.	.	.
.	.	.	.	24ff#\JJ	.	24f#\JJ	.	.	.	.	.	.	.	.
!	!	!	!	!	!	!LO:TUP:a:problem=klamra łukowa, kropka zamiast numeru	!	!	!	!	!	!	!	!
8A\J	.	8cc#\J	.	24ee\LL	.	24e\LL	.	.	.	.	.	.	.	.
.	.	.	.	24dd\	.	24d\	.	.	.	.	.	.	.	.
.	.	.	.	24cc#X\JJ	.	24c#X\JJ	.	.	.	.	.	.	.	.
.	.	.	.	8qqcc#/	.	.	.	.	.	.	.	.	.	.
!	!	!	!	!	!	!LO:LB:g=original	!	!	!	!	!	!	!	!
8B\L	.	8dd\L	.	4dd\	.	4d\	-nit	.	.	.	.	.	.	.
8B\	.	8a\	.	.	.	.	.	.	.	.	.	.	.	.
8F#\	.	8a\	.	8r	.	4d\	qui	.	.	.	.	.	.	.
8F#\J	.	8a\J	.	8dd\	.	.	.	.	.	.	.	.	.	.
=25	=25	=25	=25	=25	=25	=25	=25	=25	=25	=25	=25	=25	=25	=25
!	!	!	!	!LO:TUP:a:problem=klamra łukowa, kropka zamiast numeru	!	!LO:TUP:a:problem=klamra łukowa, kropka zamiast numeru	!	!	!	!	!	!	!	!
*	*	*2\right	*	*	*	*	*	*	*	*	*	*	*	*
*	*	*tremolo	*	*	*	*	*	*	*	*	*	*	*	*
8G\L	.	8a/L	.	24dd\LL	.	24d\LL	ve-	1ryy	1ryy	1ryy	1ryy	1ryy	1ryy	1ryy
.	.	.	.	24ee\	.	24e\	.	.	.	.	.	.	.	.
.	.	.	.	24ff#\JJ	.	24f#\JJ	.	.	.	.	.	.	.	.
!	!	!	!	!LO:TUP:a:problem=klamra łukowa, kropka zamiast numeru	!	!LO:TUP:a:problem=klamra łukowa, kropka zamiast numeru	!	!	!	!	!	!	!	!
8G\	.	8a/	.	24gg\LL	.	24g\LL	.	.	.	.	.	.	.	.
.	.	.	.	24aa\	.	24a\	.	.	.	.	.	.	.	.
.	.	.	.	24bb\JJ	.	24b\JJ	.	.	.	.	.	.	.	.
!	!	!	!	!LO:TUP:a:problem=klamra łukowa, kropka zamiast numeru	!	!LO:TUP:a:problem=klamra łukowa, kropka zamiast numeru	!	!	!	!	!	!	!	!
8A\	.	8a/	.	24aa\LL	.	24a\LL	.	.	.	.	.	.	.	.
.	.	.	.	24gg\	.	24g\	.	.	.	.	.	.	.	.
.	.	.	.	24ff#\JJ	.	24f#\JJ	.	.	.	.	.	.	.	.
!	!	!	!	!LO:TUP:a:problem=klamra łukowa, kropka zamiast numeru	!	!LO:TUP:a:problem=klamra łukowa, kropka zamiast numeru	!	!	!	!	!	!	!	!
8A\J	.	8a/J	.	24ee\LL	.	24e\LL	.	.	.	.	.	.	.	.
.	.	.	.	24dd\	.	24d\	.	.	.	.	.	.	.	.
.	.	.	.	24cc#X\JJ	.	24c\JJ	.	.	.	.	.	.	.	.
!LO:LB:g=original	!	!	!	!	!	!	!	!	!	!	!	!	!	!
*tremolo	*	*	*	*	*	*	*	*	*	*	*	*	*	*
8D/L	.	8cc#X\L	.	8dd\L	.	4d\	-nit	.	.	.	.	.	.	.
8D/	.	8cc#X\	.	8ff#\	.	.	.	.	.	.	.	.	.	.
8D/	.	8cc#X\	.	8ff#\	.	4r	.	.	.	.	.	.	.	.
8D/J	.	8cc#X\J	.	8ff#\J	.	.	.	.	.	.	.	.	.	.
*	*	*Xtremolo	*	*	*	*	*	*	*	*	*	*	*	*
=26	=26	=26	=26	=26	=26	=26	=26	=26	=26	=26	=26	=26	=26	=26
*	*	*	*	*tremolo	*	*	*	*	*	*	*	*	*	*
8D/L	.	8r	.	8ff#\L	.	4d\	be-	1ryy	1ryy	1ryy	1ryy	1ryy	1ryy	1ryy
8D/	.	8b\L	.	8ff#\	.	.	.	.	.	.	.	.	.	.
8D/	.	8b\	.	8ff#\	.	(16d\LL	.	.	.	.	.	.	.	.
.	.	.	.	.	.	16f#\JJ)	.	.	.	.	.	.	.	.
8D/J	.	8b\J	.	8ff#\J	.	16a\LL	.	.	.	.	.	.	.	.
.	.	.	.	.	.	16f#\JJ	-ne-	.	.	.	.	.	.	.
8A\L	.	8a/L	.	8ee\L	.	16f#\LL	.	.	.	.	.	.	.	.
.	.	.	.	.	.	16c#X\JJ	-di-	.	.	.	.	.	.	.
!	!	!	!	!	!	!	!LO:SIC:s=ctus	!	!	!	!	!	!	!
8A\	.	8e/	.	8ee\	.	8A/	-tus	.	.	.	.	.	.	.
8A\	.	8e/	.	8ee\	.	8r	.	.	.	.	.	.	.	.
8A\J	.	8e/J	.	8ee\J	.	8a\	qui	.	.	.	.	.	.	.
*	*	*	*	*Xtremolo	*	*	*	*	*	*	*	*	*	*
=27	=27	=27	=27	=27	=27	=27	=27	=27	=27	=27	=27	=27	=27	=27
8E\L	.	8r	.	8r	.	16a\KL	ve-	1ryy	1ryy	1ryy	1ryy	1ryy	1ryy	1ryy
.	.	.	.	.	.	8.g#X\J	.	.	.	.	.	.	.	.
8E\	.	8d/L	.	8dd\L	.	.	.	.	.	.	.	.	.	.
8E\	.	8d/	.	8dd\	.	16f#\KL	.	.	.	.	.	.	.	.
.	.	.	.	.	.	8.d\J	-nit	.	.	.	.	.	.	.
8E\J	.	8d/J	.	8dd\J	.	.	.	.	.	.	.	.	.	.
!	!	!LO:LB:g=original	!	!	!	!	!	!	!	!	!	!	!	!
*	*	*	*	*tremolo	*	*	*	*	*	*	*	*	*	*
8AA/L	.	8d/L	.	8cc#X\L	.	16c#X\LL	.	.	.	.	.	.	.	.
.	.	.	.	.	.	16d\JJ	.	.	.	.	.	.	.	.
8AA/	.	8c#X/J	.	8cc#X\	.	8e\	.	.	.	.	.	.	.	.
8AA/	.	8cc\L	.	8cc#X\	.	8r	.	.	.	.	.	.	.	.
8AA/J	.	8cc\J	.	8cc#X\J	.	8a\	qui	.	.	.	.	.	.	.
*Xtremolo	*	*tremolo	*	*Xtremolo	*	*	*	*	*	*	*	*	*	*
=28	=28	=28	=28	=28	=28	=28	=28	=28	=28	=28	=28	=28	=28	=28
8r	.	8a/L	.	8r	.	16a\KL	ve-	1ryy	1ryy	1ryy	1ryy	1ryy	1ryy	1ryy
.	.	.	.	.	.	8.g#X\J	.	.	.	.	.	.	.	.
8E\L	.	8a/	.	8b\L	.	.	.	.	.	.	.	.	.	.
8E\	.	8a/	.	8b\	.	16f#\KL	.	.	.	.	.	.	.	.
.	.	.	.	.	.	8.d\J	.	.	.	.	.	.	.	.
8E\J	.	8a/J	.	8b\J	.	.	.	.	.	.	.	.	.	.
!LO:TX:a:t=P:problem=mixed beam	!	!	!	!	!	!	!	!	!	!	!	!	!	!
8AA/L	.	8a/L	.	8b\L	.	8d\	-nit	.	.	.	.	.	.	.
8AA/	.	8a/	.	8a\	.	8c\	.	.	.	.	.	.	.	.
8A\	.	8a/	.	8ee\	.	8r	.	.	.	.	.	.	.	.
8A\J	.	8a/J	.	8ee\J	.	8e\	in	.	.	.	.	.	.	.
!	!	!	!	!	!	!LO:LB:g=original	!	!	!	!	!	!	!	!
=29	=29	=29	=29	=29	=29	=29	=29	=29	=29	=29	=29	=29	=29	=29
*tremolo	*	*	*	*tremolo	*	*	*	*	*	*	*	*	*	*
8D/L	.	8a/L	.	8ff#\L	.	4f#\	no-	1ryy	1ryy	1ryy	1ryy	1ryy	1ryy	1ryy
8D/	.	8a/	.	8ff#\	.	.	.	.	.	.	.	.	.	.
8D/	.	8a/	.	8ff#\	.	32f#\KLL	.	.	.	.	.	.	.	.
.	.	.	.	.	.	.	.	.	.	.	.	.	.	.
.	.	.	.	.	.	16.d\JJ	.	.	.	.	.	.	.	.
8D/J	.	8a/J	.	8ff#\J	.	16B\LL	-mi-	.	.	.	.	.	.	.
.	.	.	.	.	.	16A#X\JJ	.	.	.	.	.	.	.	.
8D/L	.	8a/L	.	8ff#\L	.	16B\LL	-ne	.	.	.	.	.	.	.
.	.	.	.	.	.	16f#\JJ	.	.	.	.	.	.	.	.
8D/	.	8a/	.	8ff#\	.	4f#\	Do-	.	.	.	.	.	.	.
8D/	.	8a/	.	8ff#\	.	.	.	.	.	.	.	.	.	.
8D/J	.	8a/J	.	8ff#\J	.	16e\LL	.	.	.	.	.	.	.	.
.	.	.	.	.	.	16d\JJ	.	.	.	.	.	.	.	.
=30	=30	=30	=30	=30	=30	=30	=30	=30	=30	=30	=30	=30	=30	=30
8C#X/L	.	8g#X/L	.	8ee\L	.	4e\	.	1ryy	1ryy	1ryy	1ryy	1ryy	1ryy	1ryy
8C#X/	.	8g#X/	.	8ee\	.	.	.	.	.	.	.	.	.	.
8C#X/	.	8g#X/	.	8ee\	.	16e\LL	.	.	.	.	.	.	.	.
.	.	.	.	.	.	16c#X\JJ	.	.	.	.	.	.	.	.
8C#X/J	.	8g#X/J	.	8ee\J	.	16An\LL	.	.	.	.	.	.	.	.
.	.	.	.	.	.	16G#X\JJ	.	.	.	.	.	.	.	.
8C#/L	.	8b\L	.	8ee\L	.	16A\LL	.	.	.	.	.	.	.	.
.	.	.	.	.	.	16e\JJ	.	.	.	.	.	.	.	.
8C#/	.	8b\	.	8ee\	.	4e\	.	.	.	.	.	.	.	.
8C#/	.	8b\	.	8ee\	.	.	.	.	.	.	.	.	.	.
8C#/J	.	8b\J	.	8ee\J	.	16d\LL	.	.	.	.	.	.	.	.
.	.	.	.	.	.	16c#X\JJ	.	.	.	.	.	.	.	.
*	*	*Xtremolo	*	*	*	*	*	*	*	*	*	*	*	*
!	!	!	!	!LO:LB:g=original	!	!	!	!	!	!	!	!	!	!
=31	=31	=31	=31	=31	=31	=31	=31	=31	=31	=31	=31	=31	=31	=31
!	!	!LO:TX:t=P:problem= w źródle brak taktu	!	!	!	!	!	!	!	!	!	!	!	!
8BB/L	.	1ryy	.	8dd\L	.	4d\	.	1ryy	1ryy	1ryy	1ryy	1ryy	1ryy	1ryy
8BB/	.	.	.	8dd\	.	.	.	.	.	.	.	.	.	.
!	!	!	!	!	!	!LO:TX:t=P:problem=złe wartości rytmiczne w źródle	!	!	!	!	!	!	!	!
!	!	!	!	!	!	!LO:N:vis=16	!	!	!	!	!	!	!	!
8BB/	.	.	.	8dd\	.	32d\KLL	.	.	.	.	.	.	.	.
!	!	!	!	!	!	!LO:N:vis=8.	!	!	!	!	!	!	!	!
.	.	.	.	.	.	16.B\JJ	.	.	.	.	.	.	.	.
!	!	!	!	!	!	!LO:N:vis=16	!	!	!	!	!	!	!	!
8BB/J	.	.	.	8dd\J	.	32G#X/KLL	.	.	.	.	.	.	.	.
!	!	!	!	!	!	!LO:N:vis=8.	!	!	!	!	!	!	!	!
.	.	.	.	.	.	16.F#/JJ	.	.	.	.	.	.	.	.
!	!	!	!	!	!	!LO:TX:a:t=P:problem=mixed beam	!	!	!	!	!	!	!	!
8E\L	.	.	.	8dd\L	.	16E/LL	.	.	.	.	.	.	.	.
.	.	.	.	.	.	16d\JJ	.	.	.	.	.	.	.	.
8E\	.	.	.	8dd\	.	4d\	.	.	.	.	.	.	.	.
8E\	.	.	.	8dd\	.	.	.	.	.	.	.	.	.	.
8E\J	.	.	.	8dd\J	.	8d\	-mi-	.	.	.	.	.	.	.
*	*	*	*	*Xtremolo	*	*	*	*	*	*	*	*	*	*
=32	=32	=32	=32	=32	=32	=32	=32	=32	=32	=32	=32	=32	=32	=32
8AA/L	.	8a\L	.	8cc#X\L	.	8c\	-ne	1ryy	1ryy	1ryy	1ryy	1ryy	1ryy	1ryy
8AA/	.	8cc#X\	.	8ee\	.	8e\	qui	.	.	.	.	.	.	.
.	.	.	.	.	.	8qqA/	.	.	.	.	.	.	.	.
8AA/	.	8cc#\	.	8ee\	.	4G/	.	.	.	.	.	.	.	.
8AA/J	.	8cc#\J	.	8ee\J	.	.	.	.	.	.	.	.	.	.
*Xtremolo	*	*	*	*	*	*	*	*	*	*	*	*	*	*
4D\	.	4dd\	.	4dd\	.	8F#/	ve-	.	.	.	.	.	.	.
.	.	.	.	.	.	8d\	-nit	.	.	.	.	.	.	.
8r	.	8r	.	8r	.	8d\	no-	.	.	.	.	.	.	.
8G\	.	8ee\	.	8gg\	.	16g\	-mi-	.	.	.	.	.	.	.
.	.	.	.	.	.	16e\	-ne	.	.	.	.	.	.	.
!	!	!	!	!	!	!LO:LB:g=original	!	!	!	!	!	!	!	!
=33	=33	=33	=33	=33	=33	=33	=33	=33	=33	=33	=33	=33	=33	=33
!LO:TX:a:t=P:problem=mixed beam	!	!	!	!	!	!	!	!	!	!	!	!	!	!
8A\L	.	8dd\L	.	8ff#\L	.	4d\	Do-	1ryy	1ryy	1ryy	1ryy	1ryy	1ryy	1ryy
8A\	.	8dd\	.	8ff#\	.	.	.	.	.	.	.	.	.	.
8AA/	.	8cc#X\	.	8ee\	.	8.e\	.	.	.	.	.	.	.	.
8AA/J	.	8cc#\J	.	8ee\J	.	.	.	.	.	.	.	.	.	.
.	.	.	.	.	.	16e\	.	.	.	.	.	.	.	.
*	*	*	*	*tremolo	*	*	*	*	*	*	*	*	*	*
8D\L	.	8dd\L	.	8dd\L	.	8d\	mi-	.	.	.	.	.	.	.
8F#\	.	(8a\	.	8dd\	.	8d\	-ni	.	.	.	.	.	.	.
8E\	.	8g\	.	8dd\	.	8d\	in	.	.	.	.	.	.	.
8D\J	.	8f#\J)	.	8dd\J	.	16d\	no-	.	.	.	.	.	.	.
*	*	*	*	*Xtremolo	*	*	*	*	*	*	*	*	*	*
.	.	.	.	.	.	16d\	-mine	.	.	.	.	.	.	.
=34	=34	=34	=34	=34	=34	=34	=34	=34	=34	=34	=34	=34	=34	=34
!	!	!LO:TUP:a:problem=klamra łukowa, kropka zamiast numeru	!	!LO:TUP:a:problem=klamra łukowa, kropka zamiast numeru	!	!LO:TUP:a:problem=klamra łukowa, kropka zamiast numeru	!	!	!	!	!	!	!	!
8C#X/L	.	24a\LL	.	24cc#X\LL	.	24c#X\LL	Do-	1ryy	1ryy	1ryy	1ryy	1ryy	1ryy	1ryy
.	.	24b\	.	24dd\	.	24d\	.	.	.	.	.	.	.	.
.	.	24cc#X\JJ	.	24ee\JJ	.	24e\JJ	.	.	.	.	.	.	.	.
!	!	!LO:TUP:a:problem=klamra łukowa, kropka zamiast numeru	!	!LO:TUP:a:problem=klamra łukowa, kropka zamiast numeru	!	!LO:TUP:a:problem=klamra łukowa, kropka zamiast numeru	!	!	!	!	!	!	!	!
8AA/	.	24cc#\LL	.	24ee\LL	.	24e\LL	.	.	.	.	.	.	.	.
.	.	24dd\	.	24ff#\	.	24f#\	.	.	.	.	.	.	.	.
.	.	24ee\JJ	.	24gg\JJ	.	24g\JJ	.	.	.	.	.	.	.	.
8AA/	.	16gg\LL	.	16bb\LL|	.	8g\	.	.	.	.	.	.	.	.
.	.	16gg\	.	(16bb\	.	.	.	.	.	.	.	.	.	.
8AA/J	.	16ff#\	.	16aa\	.	8g\	.	.	.	.	.	.	.	.
.	.	16ee\JJ	.	16gg\JJ)	.	.	.	.	.	.	.	.	.	.
4D\	.	8ee\L	.	8gg\L	.	8g\L	-mi-	.	.	.	.	.	.	.
.	.	8dd\J	.	8ff#\J	.	8f#\J	-ni	.	.	.	.	.	.	.
8D\L	.	16f#/KL	.	(16aa\KL	.	4cn\	qui	.	.	.	.	.	.	.
.	.	8.a/J	.	8.ccn\J)	.	.	.	.	.	.	.	.	.	.
8F#\J	.	.	.	.	.	.	.	.	.	.	.	.	.	.
=35	=35	=35	=35	=35	=35	=35	=35	=35	=35	=35	=35	=35	=35	=35
!	!	!	!	!LO:TX:a:t=P:problem=mixed beam	!	!	!	!	!	!	!	!	!	!
8G\L	.	(16g\KL	.	(16b/KL	.	8B\L	ve-	1ryy	1ryy	1ryy	1ryy	1ryy	1ryy	1ryy
.	.	8.dd\J)	.	8.gg\J)	.	.	.	.	.	.	.	.	.	.
8B\	.	.	.	.	.	8d\J	.	.	.	.	.	.	.	.
8D\	.	(16f#/KL	.	(16aa\KL	.	4cn\	-nit	.	.	.	.	.	.	.
.	.	8.a/J)	.	8.cc\J)	.	.	.	.	.	.	.	.	.	.
8F#\J	.	.	.	.	.	.	.	.	.	.	.	.	.	.
!LO:LB:g=original	!	!LO:TX:a:t=P:problem=mixed beam	!	!	!	!	!	!	!	!	!	!	!	!
8G\L	.	8g/L	.	16b\LL	.	8B\	.	.	.	.	.	.	.	.
.	.	.	.	(16gg'\	.	.	.	.	.	.	.	.	.	.
8c\	.	(8ee\	.	16gg'\	.	8g\	in	.	.	.	.	.	.	.
.	.	.	.	16gg'\JJ)	.	.	.	.	.	.	.	.	.	.
*	*	*	*	*tremolo	*	*	*	*	*	*	*	*	*	*
8B\	.	8dd\	.	16gg\L	.	8g\	no-	.	.	.	.	.	.	.
.	.	.	.	16gg\	.	.	.	.	.	.	.	.	.	.
8A\J	.	8cc\J)	.	16gg\	.	16g\	-mi-	.	.	.	.	.	.	.
.	.	.	.	16gg\J	.	16g\	-ne	.	.	.	.	.	.	.
*	*	*	*	*Xtremolo	*	*	*	*	*	*	*	*	*	*
=36	=36	=36	=36	=36	=36	=36	=36	=36	=36	=36	=36	=36	=36	=36
8G\L	.	(32b\KLL	.	(32gg\KLL	.	(32g\KLL	.	1ryy	1ryy	1ryy	1ryy	1ryy	1ryy	1ryy
.	.	16.ee\)	.	16.ee\)	.	16.e\)	.	.	.	.	.	.	.	.
8C\	.	(32dd\K	.	(32dd\K	.	(32d\K	.	.	.	.	.	.	.	.
.	.	16.cc\JJ)	.	16.cc\JJ)	.	16.c\JJ)	Do-	.	.	.	.	.	.	.
8D\	.	(32b/KLL	.	32b\KLL	.	32B\KLL	.	.	.	.	.	.	.	.
.	.	16.a/)	.	16.a/JJ	.	16.A\	.	.	.	.	.	.	.	.
8D\J	.	(32g/K	.	32g/KLL	.	32G\K	.	.	.	.	.	.	.	.
.	.	16.f#/JJ)	.	16.f#/JJ	.	16.F#\JJ	.	.	.	.	.	.	.	.
!	!	!LO:LB:g=original	!	!	!	!	!	!	!	!	!	!	!	!
!	!	!LO:TX:a:t=P:problem=mixed beam	!	!LO:TX:a:t=P:problem=mixed beam	!	!	!	!	!	!	!	!	!	!
8GG/L	.	8g/L	.	16g/LL	.	8G/	-mi-	.	.	.	.	.	.	.
.	.	.	.	(16gg'\	.	.	.	.	.	.	.	.	.	.
8C/	.	(8ee\	.	16gg'\	.	8g\	-ni	.	.	.	.	.	.	.
.	.	.	.	16gg'\JJ)	.	.	.	.	.	.	.	.	.	.
*	*	*	*	*tremolo	*	*	*	*	*	*	*	*	*	*
8BB/	.	8dd\	.	16gg\L	.	8g\	in	.	.	.	.	.	.	.
.	.	.	.	16gg\	.	.	.	.	.	.	.	.	.	.
8AA/J	.	8cc\J)	.	16gg\	.	16g\	no-	.	.	.	.	.	.	.
.	.	.	.	16gg\J	.	16g\	-mi-	.	.	.	.	.	.	.
*	*	*	*	*Xtremolo	*	*	*	*	*	*	*	*	*	*
!	!	!	!	!LO:LB:g=original	!	!LO:LB:g=original	!	!	!	!	!	!	!	!
=37	=37	=37	=37	=37	=37	=37	=37	=37	=37	=37	=37	=37	=37	=37
8GG/L	.	(32b\KLL	.	(32gg\KLL	.	32g\KLL	-ne	1ryy	1ryy	1ryy	1ryy	1ryy	1ryy	1ryy
.	.	16.ee\)	.	16.ee\)	.	16.e\	.	.	.	.	.	.	.	.
8C/	.	(32dd\K	.	(32dd\K	.	32d\K	.	.	.	.	.	.	.	.
.	.	16.cc\JJ)	.	16.cc\JJ)	.	16.c\JJ	.	.	.	.	.	.	.	.
8D/	.	(32b/KLL	.	(32b\KLL	.	32B\KLL	Do-	.	.	.	.	.	.	.
.	.	16.a/)	.	16.a\)	.	16.A\	.	.	.	.	.	.	.	.
8D/J	.	(32g/K	.	(32g\K	.	32G\K	.	.	.	.	.	.	.	.
.	.	16.f#/JJ)	.	16.f#\JJ)	.	16.F#\JJ	.	.	.	.	.	.	.	.
8GG/L	.	(32bb\KLL	.	(32bb\KLL	.	32b\KLL	.	.	.	.	.	.	.	.
.	.	16.gg\)	.	16.gg\)	.	16.g\	.	.	.	.	.	.	.	.
8AA/	.	(32ff#\K	.	(32ff#\K	.	32f#\K	.	.	.	.	.	.	.	.
.	.	16.ee\JJ)	.	16.ee\JJ)	.	16.e\JJ	.	.	.	.	.	.	.	.
8BB/	.	(32dd\KLL	.	(32dd\KLL	.	32d\KLL	.	.	.	.	.	.	.	.
.	.	16.ee\)	.	16.ee\)	.	16.e\	.	.	.	.	.	.	.	.
8C/J	.	(32cc\K	.	(32cc\K	.	32c\K	.	.	.	.	.	.	.	.
.	.	16.a\JJ)	.	16.a\JJ)	.	16.A\JJ	.	.	.	.	.	.	.	.
=38	=38	=38	=38	=38	=38	=38	=38	=38	=38	=38	=38	=38	=38	=38
1D;	.	1d	.	1d;	.	2G;/	.	1ryy	1ryy	1ryy	1ryy	1ryy	1ryy	1ryy
.	.	.	.	.	.	4.A/	.	.	.	.	.	.	.	.
.	.	.	.	.	.	8A/	-mi-	.	.	.	.	.	.	.
=39	=39	=39	=39	=39	=39	=39	=39	=39	=39	=39	=39	=39	=39	=39
!LO:TX:t=P:problem=w źródle "Da Capo" zapisane na pięciolinii	!	!LO:TX:t=P:problem=w źródle "Da Capo" zapisane na pięciolinii	!	!	!	!	!	!	!	!	!	!	!	!
!LO:TX:b:t=Da Capo	!	!LO:TX:b:t=Da Capo	!	!LO:TX:b:t=Da Capo	!	!	!	!	!	!	!	!	!	!
!	!	!	!	!LO:TX:t=P:problem=w źródle "Da Capo" zapisane na pięciolinii	!	!	!	!	!	!	!	!	!	!
1ryy	.	1ryy	.	1ryy	.	4G/	-ni	1ryy	1ryy	1ryy	1ryy	1ryy	1ryy	1ryy
.	.	.	.	.	.	4r	.	.	.	.	.	.	.	.
.	.	.	.	.	.	2r	.	.	.	.	.	.	.	.
=40	=40	=40	=40	=40	=40	=40	=40	=40	=40	=40	=40	=40	=40	=40
!	!	!	!	!	!	!	!	!	!	!	!	!	!	!LO:TX:t=P:problem=błąd renderowania - zamiast 8 pustych taktów wyświetla się belka oznaczająca 8 pustych taktów
!	!	!	!	!	!	!	!	!	!	!	!	!	!LO:TX:t=P:problem=błąd renderowania - zamiast 8 pustych taktów wyświetla się belka oznaczająca 8 pustych taktów	!
!	!	!	!	!	!	!	!	!	!	!	!	!LO:TX:t=P:problem=błąd renderowania - zamiast 8 pustych taktów wyświetla się belka oznaczająca 8 pustych taktów	!	!
!	!	!	!	!	!	!	!	!	!	!	!LO:TX:t=P:problem=błąd renderowania - zamiast 8 pustych taktów wyświetla się belka oznaczająca 8 pustych taktów	!	!	!
!	!	!	!	!	!	!	!	!	!	!LO:TX:t=P:problem=błąd renderowania - zamiast 8 pustych taktów wyświetla się belka oznaczająca 8 pustych taktów	!	!	!	!
!	!	!	!	!	!	!	!	!	!LO:TX:t=P:problem=błąd renderowania - zamiast 8 pustych taktów wyświetla się belka oznaczająca 8 pustych taktów	!	!	!	!	!
!LO:TX:t=P:problem=błąd renderowania - zamiast 8 pustych taktów wyświetla się belka oznaczająca 8 pustych taktów	!	!	!	!	!	!	!	!	!	!	!	!	!	!
!	!	!LO:TX:t=P:problem=błąd renderowania - zamiast 8 pustych taktów wyświetla się belka oznaczająca 8 pustych taktów	!	!	!	!	!	!	!	!	!	!	!	!
!	!	!	!	!LO:TX:t=P:problem=błąd renderowania - zamiast 8 pustych taktów wyświetla się belka oznaczająca 8 pustych taktów	!	!	!	!	!	!	!	!	!	!
!	!	!	!	!	!	!LO:TX:t=P:problem=błąd renderowania - zamiast 8 pustych taktów wyświetla się belka oznaczająca 8 pustych taktów	!	!	!	!	!	!	!	!
!	!	!	!	!	!	!	!	!LO:TX:t=P:problem=błąd renderowania - zamiast 8 pustych taktów wyświetla się belka oznaczająca 8 pustych taktów	!	!	!	!	!	!
1ryy	.	1ryy	.	1ryy	.	1r	.	1ryy	1ryy	1ryy	1ryy	1ryy	1ryy	1ryy
=41	=41	=41	=41	=41	=41	=41	=41	=41	=41	=41	=41	=41	=41	=41
1ryy	.	1ryy	.	1ryy	.	1r	.	1ryy	1ryy	1ryy	1ryy	1ryy	1ryy	1ryy
=42	=42	=42	=42	=42	=42	=42	=42	=42	=42	=42	=42	=42	=42	=42
1ryy	.	1ryy	.	1ryy	.	1r	.	1ryy	1ryy	1ryy	1ryy	1ryy	1ryy	1ryy
=43	=43	=43	=43	=43	=43	=43	=43	=43	=43	=43	=43	=43	=43	=43
1ryy	.	1ryy	.	1ryy	.	1r	.	1ryy	1ryy	1ryy	1ryy	1ryy	1ryy	1ryy
=44	=44	=44	=44	=44	=44	=44	=44	=44	=44	=44	=44	=44	=44	=44
1ryy	.	1ryy	.	1ryy	.	1r	.	1ryy	1ryy	1ryy	1ryy	1ryy	1ryy	1ryy
=45	=45	=45	=45	=45	=45	=45	=45	=45	=45	=45	=45	=45	=45	=45
1ryy	.	1ryy	.	1ryy	.	1r	.	1ryy	1ryy	1ryy	1ryy	1ryy	1ryy	1ryy
=46	=46	=46	=46	=46	=46	=46	=46	=46	=46	=46	=46	=46	=46	=46
1ryy	.	1ryy	.	1ryy	.	1r	.	1ryy	1ryy	1ryy	1ryy	1ryy	1ryy	1ryy
=47	=47	=47	=47	=47	=47	=47	=47	=47	=47	=47	=47	=47	=47	=47
1ryy	.	1ryy	.	1ryy	.	1r	.	1r	1r	1r	1r	1r	1r	1ryy
==	==	==	==	==	==	==	==	==	==	==	==	==	==	==
*-	*-	*-	*-	*-	*-	*-	*-	*-	*-	*-	*-	*-	*-	*-
!!!system-decoration: [(s1,s2)][(s3,s4)][(s5,s6)][(s7,s8)][(s9,s10)]s11
!!!RDF**kern: | = vertical stroke
!!!EED: Antoni Szymański
!!!EEV: 2020-10-03
!!!ENC: Berenika Jozajtis
!!!END: 2020-05-19
!!!YEC: Copyright 2022 Narodowy Instytut Fryderyka Chopina (https://polishscores.org)
!!!YEM: License CC-BY-4.0 (https://creativecommons.org/licenses/by/4.0)
